src/assets/Icons/04.svg

<svg width="42" height="25" viewBox="0 0 42 25" fill="none" xmlns="http://www.w3.org/2000/svg">
<path d="M1.592 5.984L0.955743 5.69207L0.952953 5.69831L1.592 5.984ZM5.048 1.728L5.44775 2.30263L5.44942 2.30146L5.048 1.728ZM15.48 1.728L15.0746 2.29881L15.0841 2.30531L15.48 1.728ZM18.936 5.984L18.2969 6.2697L18.2998 6.27592L18.936 5.984ZM19 18.688L18.3582 18.4086L19 18.688ZM15.608 22.912L16.0021 23.4905L15.608 22.912ZM4.952 22.912L4.55792 23.4906L4.5618 23.4932L4.952 22.912ZM1.56 18.688L2.20183 18.4086L1.56 18.688ZM5.112 16.96L4.45478 17.201L4.45611 17.2046L5.112 16.96ZM7.128 19.84L6.70577 20.3984L6.71464 20.4049L7.128 19.84ZM13.432 19.84L13.852 20.4L13.8542 20.3984L13.432 19.84ZM15.448 16.96L16.1039 17.2046L16.1052 17.201L15.448 16.96ZM15.448 7.68L14.7908 7.92098L14.7921 7.92457L15.448 7.68ZM13.432 4.768L13.0032 5.32133L13.0098 5.32636L13.432 4.768ZM7.128 4.768L7.55018 5.32636L7.55018 5.32636L7.128 4.768ZM5.112 7.68L5.7679 7.92457L5.76921 7.92098L5.112 7.68ZM1.076 12.352C1.076 9.99689 1.46852 7.97534 2.23105 6.26969L0.952953 5.69831C0.0941451 7.61933 -0.324 9.84311 -0.324 12.352H1.076ZM2.22823 6.27592C3.0141 4.56312 4.08966 3.24739 5.44775 2.30263L4.64825 1.15337C3.06234 2.25661 1.8339 3.77821 0.955773 5.69208L2.22823 6.27592ZM5.44942 2.30146C6.81463 1.34582 8.41029 0.859998 10.264 0.859998V-0.540002C8.14971 -0.540002 6.26804 0.0195122 4.64658 1.15454L5.44942 2.30146ZM10.264 0.859998C12.1409 0.859998 13.7341 1.34673 15.0747 2.29873L15.8853 1.15727C14.2819 0.0186014 12.3978 -0.540002 10.264 -0.540002V0.859998ZM15.0841 2.30531C16.4609 3.24938 17.5337 4.56231 18.297 6.26969L19.575 5.69831C18.717 3.77902 17.4858 2.25461 15.8759 1.15069L15.0841 2.30531ZM18.2998 6.27592C19.0816 7.97988 19.484 9.99915 19.484 12.352H20.884C20.884 9.84085 20.4544 7.61479 19.5722 5.69208L18.2998 6.27592ZM19.484 12.352C19.484 14.6871 19.1017 16.7005 18.3582 18.4086L19.6418 18.9674C20.477 17.0488 20.884 14.8383 20.884 12.352H19.484ZM18.3582 18.4086C17.6155 20.1147 16.565 21.4132 15.2139 22.3335L16.0021 23.4905C17.595 22.4055 18.8058 20.888 19.6418 18.9674L18.3582 18.4086ZM15.2139 22.3335C13.8772 23.244 12.2391 23.716 10.264 23.716V25.116C12.4702 25.116 14.3948 24.5854 16.0021 23.4905L15.2139 22.3335ZM10.264 23.716C8.3351 23.716 6.70469 23.2457 5.3422 22.3308L4.5618 23.4932C6.18598 24.5837 8.0969 25.116 10.264 25.116V23.716ZM5.34608 22.3335C3.99504 21.4132 2.94446 20.1147 2.20183 18.4086L0.918171 18.9674C1.7542 20.888 2.96496 22.4055 4.55792 23.4905L5.34608 22.3335ZM2.20183 18.4086C1.45829 16.7005 1.076 14.6871 1.076 12.352H-0.324C-0.324 14.8383 0.0830388 17.0488 0.918171 18.9674L2.20183 18.4086ZM3.708 12.352C3.708 14.2018 3.94982 15.8238 4.45479 17.201L5.76921 16.719C5.33552 15.5362 5.108 14.0862 5.108 12.352H3.708ZM4.45611 17.2046C4.96144 18.5598 5.70335 19.6404 6.70582 20.3984L7.55018 19.2816C6.80332 18.7169 6.20123 17.8776 5.76789 16.7154L4.45611 17.2046ZM6.71464 20.4049C7.72371 21.1433 8.91834 21.5 10.264 21.5V20.1C9.17766 20.1 8.28162 19.8167 7.54136 19.2751L6.71464 20.4049ZM10.264 21.5C11.6459 21.5 12.8567 21.1464 13.852 20.4L13.012 19.28C12.3006 19.8136 11.3994 20.1 10.264 20.1V21.5ZM13.8542 20.3984C14.8567 19.6404 15.5986 18.5598 16.1039 17.2046L14.7921 16.7154C14.3588 17.8776 13.7567 18.7169 13.0098 19.2816L13.8542 20.3984ZM16.1052 17.201C16.6102 15.8238 16.852 14.2018 16.852 12.352H15.452C15.452 14.0862 15.2245 15.5362 14.7908 16.719L16.1052 17.201ZM16.852 12.352C16.852 10.4421 16.6112 8.79595 16.1039 7.43543L14.7921 7.92457C15.2235 9.08138 15.452 10.5499 15.452 12.352H16.852ZM16.1052 7.43902C15.6009 6.06355 14.8594 4.9697 13.8542 4.20964L13.0098 5.32636C13.7539 5.88896 14.3565 6.73644 14.7908 7.92098L16.1052 7.43902ZM13.8608 4.21471C12.8651 3.44305 11.6511 3.076 10.264 3.076V4.476C11.3942 4.476 12.2922 4.77028 13.0032 5.32129L13.8608 4.21471ZM10.264 3.076C8.91311 3.076 7.7153 3.44637 6.70582 4.20964L7.55018 5.32636C8.29003 4.76696 9.18289 4.476 10.264 4.476V3.076ZM6.70582 4.20964C5.70058 4.9697 4.95913 6.06355 4.45479 7.43902L5.76921 7.92098C6.20354 6.73645 6.80609 5.88896 7.55018 5.32636L6.70582 4.20964ZM4.45611 7.43543C3.9488 8.79595 3.708 10.4421 3.708 12.352H5.108C5.108 10.5499 5.33653 9.08138 5.76789 7.92457L4.45611 7.43543ZM38.2025 0.608H38.9025V-0.092H38.2025V0.608ZM38.2025 24V24.7H38.9025V24H38.2025ZM34.3305 24H33.6305V24.7H34.3305V24ZM34.3305 0.608V-0.092H33.6305V0.608H34.3305ZM22.4585 15.968L21.8822 15.5706L21.1789 16.5906L22.4155 16.6667L22.4585 15.968ZM33.0505 0.608V-0.092H32.6829L32.4742 0.210615L33.0505 0.608ZM37.3705 0.608L37.9471 1.00497L38.7023 -0.092H37.3705V0.608ZM26.6185 16.224L26.5755 16.9227L26.9706 16.947L27.1951 16.621L26.6185 16.224ZM41.0505 19.552V20.252H41.7505V19.552H41.0505ZM22.4585 19.552H21.7585V20.252H22.4585V19.552ZM22.4585 15.968V15.268H21.7585V15.968H22.4585ZM41.0505 15.968H41.7505V15.268H41.0505V15.968ZM37.5025 0.608V24H38.9025V0.608H37.5025ZM38.2025 23.3H34.3305V24.7H38.2025V23.3ZM35.0305 24V0.608H33.6305V24H35.0305ZM34.3305 1.308H38.2025V-0.092H34.3305V1.308ZM23.0348 16.3654L33.6268 1.00538L32.4742 0.210615L21.8822 15.5706L23.0348 16.3654ZM33.0505 1.308H37.3705V-0.092H33.0505V1.308ZM36.7939 0.211029L26.0419 15.827L27.1951 16.621L37.9471 1.00497L36.7939 0.211029ZM26.6615 15.5253L22.5015 15.2693L22.4155 16.6667L26.5755 16.9227L26.6615 15.5253ZM41.0505 18.852H22.4585V20.252H41.0505V18.852ZM23.1585 19.552V15.968H21.7585V19.552H23.1585ZM22.4585 16.668H41.0505V15.268H22.4585V16.668ZM40.3505 15.968V19.552H41.7505V15.968H40.3505Z" fill="#FD943C"/>
</svg>

<svg width="42" height="25" fill="none" xmlns="http://www.w3.org/2000/svg"><path d="m1.592 5.984-.636-.292-.003.006.639.286Zm3.456-4.256.4.575.001-.002-.401-.573Zm10.432 0-.405.57.01.007.395-.577Zm3.456 4.256-.64.286.004.006.636-.292ZM19 18.688l-.642-.28.642.28Zm-3.392 4.224.394.579-.394-.579Zm-10.656 0-.394.579.004.002.39-.581ZM1.56 18.688l.642-.28-.642.28Zm3.552-1.728-.657.241.001.004.656-.245Zm2.016 2.88-.422.558.009.007.413-.565Zm6.304 0 .42.56.002-.002-.422-.558Zm2.016-2.88.656.245.001-.004-.657-.241Zm0-9.28-.657.241.001.004.656-.245Zm-2.016-2.912-.429.553.007.005.422-.558Zm-6.304 0 .422.558-.422-.558ZM5.112 7.68l.656.245.001-.004-.657-.241Zm-4.036 4.672c0-2.355.393-4.377 1.155-6.082L.953 5.698C.094 7.62-.324 9.843-.324 12.352h1.4Zm1.152-6.076c.786-1.713 1.862-3.029 3.22-3.973l-.8-1.15C3.062 2.257 1.834 3.778.956 5.693l1.272.583ZM5.45 2.3C6.815 1.346 8.41.86 10.264.86v-1.4c-2.114 0-3.996.56-5.617 1.695L5.449 2.3ZM10.264.86c1.877 0 3.47.487 4.81 1.439l.811-1.142C14.282.02 12.398-.54 10.264-.54v1.4Zm4.82 1.445c1.377.944 2.45 2.257 3.213 3.965l1.278-.572c-.858-1.919-2.09-3.443-3.7-4.547l-.79 1.154Zm3.216 3.97c.782 1.705 1.184 3.724 1.184 6.077h1.4c0-2.511-.43-4.737-1.312-6.66l-1.272.584Zm1.184 6.077c0 2.335-.382 4.349-1.126 6.057l1.284.558c.835-1.918 1.242-4.129 1.242-6.615h-1.4Zm-1.126 6.057c-.742 1.706-1.793 3.004-3.144 3.925l.788 1.157c1.593-1.085 2.804-2.603 3.64-4.524l-1.284-.558Zm-3.144 3.925c-1.337.91-2.975 1.382-4.95 1.382v1.4c2.206 0 4.13-.53 5.738-1.625l-.788-1.157Zm-4.95 1.382c-1.929 0-3.56-.47-4.922-1.385l-.78 1.162c1.624 1.09 3.535 1.623 5.702 1.623v-1.4Zm-4.918-1.383c-1.351-.92-2.402-2.218-3.144-3.924l-1.284.558c.836 1.921 2.047 3.439 3.64 4.524l.788-1.157ZM2.202 18.41c-.744-1.708-1.126-3.722-1.126-6.057h-1.4c0 2.486.407 4.697 1.242 6.615l1.284-.558Zm1.506-6.057c0 1.85.242 3.472.747 4.849l1.314-.482c-.433-1.183-.661-2.633-.661-4.367h-1.4Zm.748 4.853c.505 1.355 1.247 2.435 2.25 3.193l.844-1.116c-.747-.565-1.349-1.404-1.782-2.567l-1.312.49Zm2.259 3.2c1.009.738 2.203 1.095 3.549 1.095v-1.4c-1.086 0-1.982-.283-2.723-.825l-.826 1.13Zm3.549 1.095c1.382 0 2.593-.354 3.588-1.1l-.84-1.12c-.711.534-1.613.82-2.748.82v1.4Zm3.59-1.102c1.003-.758 1.745-1.838 2.25-3.193l-1.312-.49c-.433 1.163-1.035 2.002-1.782 2.567l.844 1.116Zm2.251-3.197c.505-1.377.747-3 .747-4.849h-1.4c0 1.734-.227 3.184-.661 4.367l1.314.482Zm.747-4.849c0-1.91-.24-3.556-.748-4.917l-1.312.49c.431 1.156.66 2.625.66 4.427h1.4Zm-.747-4.913c-.504-1.375-1.246-2.47-2.25-3.23l-.845 1.117c.744.563 1.347 1.41 1.78 2.595l1.315-.482Zm-2.244-3.224c-.996-.772-2.21-1.139-3.597-1.139v1.4c1.13 0 2.028.294 2.74.845l.857-1.106Zm-3.597-1.139c-1.35 0-2.549.37-3.558 1.134l.844 1.116c.74-.559 1.633-.85 2.714-.85v-1.4ZM6.706 4.21C5.7 4.97 4.959 6.064 4.455 7.439l1.314.482c.435-1.185 1.037-2.032 1.781-2.595L6.706 4.21Zm-2.25 3.225c-.507 1.36-.748 3.007-.748 4.917h1.4c0-1.802.229-3.27.66-4.427l-1.312-.49ZM38.202.608h.7v-.7h-.7v.7Zm0 23.392v.7h.7V24h-.7Zm-3.871 0h-.7v.7h.7V24Zm0-23.392v-.7h-.7v.7h.7Zm-11.873 15.36-.576-.397-.703 1.02 1.237.076.043-.699ZM33.052.608v-.7h-.368l-.209.303.577.397Zm4.32 0 .576.397.755-1.097h-1.331v.7ZM26.617 16.224l-.042.699.395.024.224-.326-.576-.397Zm14.433 3.328v.7h.7v-.7h-.7Zm-18.593 0h-.7v.7h.7v-.7Zm0-3.584v-.7h-.7v.7h.7Zm18.593 0h.7v-.7h-.7v.7ZM37.502.608V24h1.4V.608h-1.4Zm.7 22.692h-3.871v1.4h3.871v-1.4Zm-3.171.7V.608h-1.4V24h1.4Zm-.7-22.692h3.871v-1.4h-3.871v1.4ZM23.035 16.365l10.592-15.36-1.153-.794-10.592 15.36 1.153.794ZM33.05 1.308h4.32v-1.4h-4.32v1.4ZM36.794.211 26.042 15.827l1.153.794L37.947 1.005 36.794.211ZM26.662 15.525l-4.16-.256-.086 1.398 4.16.256.085-1.398Zm14.389 3.327H22.457v1.4h18.593v-1.4Zm-17.893.7v-3.584h-1.4v3.584h1.4Zm-.7-2.884h18.593v-1.4H22.457v1.4Zm17.892-.7v3.584h1.4v-3.584h-1.4Z" fill="#FD943C"/></svg>
